X:1     %Music
T:Robin Hood
B:Singing Together, Spring 1972, BBC Publications
F:http://www.folkinfo.org/songs
M:6/8     %Meter
L:1/8     %
K:Bb
G3/2A/B A3/2B/c |B3/2A/G F2 F |B2 B c2 c |d6 |
w:Ro-bin Hood, Ro-bin Hood, with Lit-tle John, Were hid-ing in a tree, 
d3/2e/d c3/2B/A |B3/2A/G F3/2G/A |B2 G (^F3/2E/)F |G6 |]
w:There they were watch-ing the path through the for-est To see what they_ could see. 